!!!OTL: Der grausame Bruder A katona a menyecsket
!!!ARE: Europa, Osteuropa, Ungarn
!!!YOR: 3, S. 260
!!    1925 gedruckt in Berlin
!!!SCT: Q2041d
!!!YEM: Copyright 1995, estate of Helmut Schaffrath.
**kern
*ICvox
*Ivox
!! Mixed meters:  2/4; 3/4
*M2/4
*k[b-]
*d:
=1
{8d
8d
8a
8a
=2
8ccn
8b-
8a
8g}
=3
{8a
8fn
8fn
8g
=4
8fn
8e
8d
8A}
=5
*M3/4
{8d
8fn
4.a
8e
=6
*M2/4
8g
8fn
4e
=7
4d
4r}
==
!!!AGN: Ballade, Verfuehrung, Mord, Rache
!! Melodievergleich zu Q0068J, anderes Lied "Maedchenmoerder" , deshalb
!!    in die Balladengruppe Q0041 eingeordnet.
!!    Verzierungen (Vorschlaege und Glissando) .
!!!ONB: ESAC (Essen Associative Code) Database: BALLADE
!!!AMT: irregular
!!!AIN: vox
!!!EED: Helmut Schaffrath
!!!EEV: 1.0
*-
